icons/1_Primary/Spring.svg

<svg width="1024" height="1024" viewBox="0 0 1024 1024" fill="none" xmlns="http://www.w3.org/2000/svg">
<g clip-path="url(#clip0_2_3531)">
<path d="M512 1024C794.77 1024 1024 794.77 1024 512C1024 229.23 794.77 0 512 0C229.23 0 0 229.23 0 512C0 794.77 229.23 1024 512 1024Z" fill="#FF837D"/>
<path d="M609.64 417.66C589.75 417.66 573.58 433.53 573.58 453.05C573.6 479.858 583.485 505.722 601.35 525.71C608.546 533.81 616.868 540.835 626.06 546.57C631.644 538.237 636.258 529.292 639.81 519.91C648.635 496.459 650.466 470.951 645.08 446.48C644.93 445.73 644.74 444.98 644.56 444.23C642.485 436.575 637.939 429.82 631.63 425.013C625.321 420.207 617.601 417.618 609.67 417.65L609.64 417.66ZM387.16 519.91C390.711 529.298 395.335 538.244 400.94 546.57C410.117 540.826 418.427 533.802 425.62 525.71C443.512 505.717 453.407 479.83 453.41 453C453.41 433.49 437.24 417.61 417.32 417.61C409.39 417.578 401.671 420.165 395.362 424.969C389.053 429.774 384.507 436.527 382.43 444.18C382.28 444.93 382.07 445.68 381.91 446.43C379.921 455.563 378.916 464.883 378.91 474.23C378.893 489.822 381.699 505.288 387.19 519.88L387.16 519.91ZM787.62 502.6L822 519.5C797.14 568.17 745.85 601.63 686.56 601.63C669.636 601.637 652.828 598.853 636.81 593.39C603.982 625.878 559.661 644.1 513.475 644.1C467.289 644.1 422.968 625.878 390.14 593.39C374.121 598.861 357.307 601.645 340.38 601.63C278.68 601.63 225.59 565.39 202 513.42L237.19 498C246.267 517.71 260.819 534.395 279.113 546.067C297.407 557.738 318.67 563.904 340.37 563.83C348.588 563.825 356.781 562.94 364.81 561.19C342.553 524.6 335.159 480.874 344.15 439C344.51 437.35 344.9 435.77 345.3 434.15C353.79 402.94 382.8 379.97 417.3 379.97H419.3C421.4 380.03 423.49 380.16 425.56 380.39C462.85 384.39 491.81 415.39 491.81 453.07C491.81 503.66 466.02 548.32 426.67 575.12C451.081 595.313 481.77 606.36 513.45 606.36C545.13 606.36 575.819 595.313 600.23 575.12C560.87 548.31 535.09 503.64 535.09 453.07C535.09 415.42 564.09 384.42 601.31 380.38C603.38 380.17 605.46 380.04 607.57 379.98H609.62C644.12 379.98 673.12 402.98 681.62 434.19C682.02 435.79 682.41 437.39 682.77 439.03C691.782 480.933 684.384 524.697 662.1 561.31C670.119 563.059 678.302 563.944 686.51 563.95C707.352 564.011 727.807 558.323 745.626 547.511C763.445 536.7 777.938 521.184 787.51 502.67L787.62 502.6Z" fill="white"/>
</g>
<defs>
<clipPath id="clip0_2_3531">
<rect width="1024" height="1024" fill="white"/>
</clipPath>
</defs>
</svg>

<svg xmlns="http://www.w3.org/2000/svg" viewBox="0 0 1024 1024">
   <circle cx="512" cy="512" r="512" style="fill:#ed2761"/>
   <path d="M609.64 417.66c-19.89 0-36.06 15.87-36.06 35.39a109.16 109.16 0 0 0 27.77 72.66 113.26 113.26 0 0 0 24.71 20.86 131.63 131.63 0 0 0 13.75-26.66 129.47 129.47 0 0 0 5.27-73.43c-.15-.75-.34-1.5-.52-2.25a36 36 0 0 0-34.89-26.58zM387.16 519.91a130.24 130.24 0 0 0 13.78 26.66 113.8 113.8 0 0 0 24.68-20.86A109.05 109.05 0 0 0 453.41 453c0-19.51-16.17-35.39-36.09-35.39a36 36 0 0 0-34.89 26.57c-.15.75-.36 1.5-.52 2.25a131.05 131.05 0 0 0-3 27.8 129.22 129.22 0 0 0 8.28 45.65zm400.46-17.31L822 519.5c-24.86 48.67-76.15 82.13-135.44 82.13a153.92 153.92 0 0 1-49.75-8.24 175.34 175.34 0 0 1-246.67 0 153.54 153.54 0 0 1-49.76 8.24c-61.7 0-114.79-36.24-138.38-88.21L237.19 498a113.17 113.17 0 0 0 103.18 65.83 115.18 115.18 0 0 0 24.44-2.64A167.47 167.47 0 0 1 344.15 439c.36-1.65.75-3.23 1.15-4.85 8.49-31.21 37.5-54.18 72-54.18h2c2.1.06 4.19.19 6.26.42 37.29 4 66.25 35 66.25 72.68 0 50.59-25.79 95.25-65.14 122.05a136.15 136.15 0 0 0 173.56 0c-39.36-26.81-65.14-71.48-65.14-122.05 0-37.65 29-68.65 66.22-72.69 2.07-.21 4.15-.34 6.26-.4h2.05c34.5 0 63.5 23 72 54.21.4 1.6.79 3.2 1.15 4.84a167.47 167.47 0 0 1-20.67 122.28 115 115 0 0 0 24.41 2.64 113.33 113.33 0 0 0 101-61.28z" style="fill:#fff"/>
</svg>
